packages/ui-solid/icons/globe_28.svg

<svg width="28" height="28" viewBox="0 0 28 28" fill="none" xmlns="http://www.w3.org/2000/svg">
<path fill-rule="evenodd" clip-rule="evenodd" d="M4.39149 10.9803C4.12421 11.8686 3.98079 12.8088 3.98079 13.7814C3.98079 14.754 4.12421 15.6943 4.39149 16.5825H8.75316C8.64601 15.7171 8.58674 14.7842 8.58674 13.7814C8.58674 12.7786 8.64601 11.8458 8.75316 10.9803H4.39149ZM5.23617 9.00174H9.10335C9.56703 7.02276 10.2943 5.4896 11.0824 4.35716C8.57418 5.10114 6.48514 6.79065 5.23617 9.00174ZM13.9657 4.12056C13.1377 4.75843 11.8713 6.26757 11.1403 9.00174H16.7911C16.0601 6.26757 14.7937 4.75843 13.9657 4.12056ZM17.1844 10.9803H10.747C10.6314 11.8259 10.5653 12.7576 10.5653 13.7814C10.5653 14.8053 10.6314 15.737 10.747 16.5825H17.1844C17.3 15.737 17.3661 14.8053 17.3661 13.7814C17.3661 12.7576 17.3 11.8259 17.1844 10.9803ZM19.1782 16.5825C19.2854 15.7171 19.3447 14.7842 19.3447 13.7814C19.3447 12.7786 19.2854 11.8458 19.1782 10.9803H23.5405C23.8072 11.8672 23.9506 12.8071 23.9506 13.7814C23.9506 14.7557 23.8072 15.6956 23.5405 16.5825H19.1782ZM16.7911 18.5611H11.1403C11.8713 21.2953 13.1377 22.8044 13.9657 23.4423C14.7937 22.8044 16.0601 21.2953 16.7911 18.5611ZM11.0824 23.2057C10.2943 22.0732 9.56703 20.5401 9.10335 18.5611L5.23617 18.5611C6.48514 20.7722 8.57418 22.4617 11.0824 23.2057ZM16.8492 23.2054C17.6372 22.0729 18.3644 20.5399 18.8281 18.5611H22.6959C21.4468 20.772 19.3567 22.4613 16.8492 23.2054ZM22.6959 9.00174H18.8281C18.3644 7.02294 17.6372 5.48988 16.8492 4.35748C19.3567 5.10158 21.4468 6.79081 22.6959 9.00174ZM2.00222 13.7814C2.00222 7.24165 7.37086 1.96243 13.9657 1.96243C19.0934 1.96243 23.474 5.1509 25.1741 9.64069C25.6625 10.9305 25.9292 12.3262 25.9292 13.7814C25.9292 15.2366 25.6625 16.6324 25.1741 17.9221C23.474 22.4119 19.0934 25.6004 13.9657 25.6004C7.37086 25.6004 2.00222 20.3212 2.00222 13.7814Z" fill="#007AFF"/>
</svg>

<svg xmlns="http://www.w3.org/2000/svg" width="28" height="28" fill="none"><path fill="currentColor" fill-rule="evenodd" d="M4.391 10.98a9.7 9.7 0 0 0-.41 2.801c0 .973.143 1.913.41 2.801h4.362a23 23 0 0 1-.166-2.8c0-1.003.059-1.936.166-2.802zm.845-1.978h3.867c.464-1.98 1.191-3.512 1.98-4.645a9.98 9.98 0 0 0-5.847 4.645m8.73-4.881c-.828.637-2.095 2.147-2.826 4.88h5.651c-.73-2.733-1.997-4.243-2.825-4.88m3.218 6.86h-6.437a21 21 0 0 0-.182 2.8c0 1.024.066 1.956.182 2.801h6.437c.116-.845.182-1.777.182-2.8 0-1.024-.066-1.956-.182-2.802m1.994 5.602a23 23 0 0 0 .167-2.802c0-1.002-.06-1.935-.167-2.8h4.363a9.7 9.7 0 0 1 .41 2.8 9.7 9.7 0 0 1-.41 2.801zm-2.387 1.978h-5.65c.73 2.734 1.997 4.243 2.825 4.881.828-.638 2.094-2.147 2.825-4.88m-5.709 4.645c-.788-1.133-1.515-2.666-1.979-4.645H5.236a9.98 9.98 0 0 0 5.846 4.645m5.767 0c.788-1.133 1.515-2.666 1.98-4.645h3.867a10 10 0 0 1-5.847 4.644m5.847-14.204h-3.868c-.464-1.98-1.19-3.512-1.979-4.645a9.98 9.98 0 0 1 5.847 4.645m-20.694 4.78c0-6.54 5.369-11.82 11.964-11.82 5.127 0 9.508 3.189 11.208 7.679a11.7 11.7 0 0 1 .755 4.14c0 1.456-.266 2.851-.755 4.141-1.7 4.49-6.08 7.678-11.208 7.678-6.595 0-11.964-5.279-11.964-11.819" clip-rule="evenodd"/></svg>
